Adwaita++-Dark/emotes/symbolic/face-raspberry-squint-symbolic.svg

<svg height="16" width="16" xmlns="http://www.w3.org/2000/svg">
  <path clip-rule="evenodd" d="m8 1c-3.866 0-7 3.134-7 7s3.134 7 7 7 7-3.134 7-7-3.134-7-7-7zm-5 8.0625c.99656.6369 4.0165.9375 5 .9375l.15686.0003h.00002c.51873.0014 1.36743.0036 2.24932-.09399.9776-.10827 1.996-.35958 2.5938-.84375v.5c0 .44154-.7534.91904-2.1562 1.18754l.25.5312c.279.6033.0833 1.2756-.4375 1.5312l-.25.125c-.52083.2556-1.1749-.0293-1.4688-.625l-.625-1.2812c-.00718-.0146-.01169-.0231-.01541-.0301l-.00004-.0001h-.00002-.00001c-.00511-.0096-.00872-.0165-.01571-.0323-.06343.0007-.12257.0005-.18389.0002h-.00005-.00005-.00006l-.0972-.0002c-3.2558 0-5-.8737-5-1.40618zm.992-4.0625.516-.859 3.21398 1.929-3.21398 1.93-.516-.86 1.78296-1.07zm4.28492 1.071 3.21508-1.93.516.859-1.7841 1.07 1.7841 1.07-.516.86z" fill="#e6ddff" fill-rule="evenodd"/>
</svg>

<svg xmlns="http://www.w3.org/2000/svg" width="16" height="16">
 <path fill="#E6DDFF" fill-rule="evenodd" d="M8 1C4.134 1 1 4.134 1 8C1 11.866 4.134 15 8 15C11.866 15 15 11.866 15 8C15 4.134 11.866 1 8 1ZM3 9.0625C3.99656 9.6994 7.0165 10 8 10L8.15686 10.0003H8.15688C8.67561 10.0017 9.52431 10.0039 10.4062 9.90631C11.3838 9.79804 12.4022 9.54673 13 9.06256V9.56256C13 10.0041 12.2466 10.4816 10.8438 10.7501L11.0938 11.2813C11.3728 11.8846 11.1771 12.5569 10.6563 12.8125L10.4063 12.9375C9.88547 13.1931 9.2314 12.9082 8.9375 12.3125L8.3125 11.0313C8.30532 11.0167 8.30081 11.0082 8.29709 11.0012L8.29705 11.0011L8.29703 11.0011L8.29702 11.0011C8.29191 10.9915 8.2883 10.9846 8.28131 10.9688C8.21788 10.9695 8.15874 10.9693 8.09742 10.969H8.09737H8.09732H8.09726L8.00006 10.9688C4.74426 10.9688 3.00006 10.0951 3.00006 9.56262L3 9.0625ZM3.992 5L4.508 4.141L7.72198 6.07L4.508 8L3.992 7.14L5.77496 6.07L3.992 5ZM8.27692 6.071L11.492 4.141L12.008 5L10.2239 6.07L12.008 7.14L11.492 8L8.27692 6.071Z" clip-rule="evenodd"/>
</svg>
